resources/images/planets/saturn.svg

<svg width="100" height="100" xmlns="http://www.w3.org/2000/svg" xmlns:undefined="http://ns.adobe.com/AdobeIllustrator/10.0/" xml:space="preserve" enable-background="new 0 0 100 100" version="1.1">
 <switch>
  <foreignObject id="svg_1" height="1" width="1" y="0" x="0" requiredExtensions="http://ns.adobe.com/AdobeIllustrator/10.0/"/>
  <g id="svg_2" >
   <path id="svg_3" d="m94.6,75c-0.4,-5.1 -5.4,-10.7 -7.4,-12.9c1.3,-3.8 2.1,-7.9 2.1,-12.2c0,-20.9 -17,-37.9 -37.8,-37.9c-10.2,0 -19.4,4 -26.2,10.6c-7.8,-2.7 -13.7,-2.2 -13.9,-2.2c-3.4,0.2 -5,1.7 -5.7,3c-2,3.7 1,9.1 1.3,9.7c1.9,3.2 4.5,6.4 7.3,9.4c-0.5,2.4 -0.7,4.8 -0.7,7.4c0,20.9 17,37.8 37.8,37.8c8.7,0 16.7,-3 23.1,-8c5.8,1.8 9.1,2 9.3,2.1c0.7,0.1 1.4,0.1 2,0.1c3.3,0 5.8,-0.8 7.2,-2.5c2,-2 1.7,-4.4 1.6,-4.4zm-20.8,0.5c-7.4,-2.4 -18.6,-7.2 -32.7,-16.6c-0.2,-0.1 -12.9,-7.9 -22.7,-17.6c1.1,-4.2 2.9,-8.1 5.4,-11.5c4.9,7.5 23.8,32.4 59.2,32.7c-2,5.1 -5.2,9.5 -9.2,13zm-35.5,-57.1c4.3,5.3 21.7,24.5 46.9,26.5c0.2,1.6 0.4,3.2 0.4,4.9c0,3.8 -0.7,7.5 -1.8,10.9c-36,-0.1 -54.7,-26.1 -58.7,-32.4c3.5,-4.3 8,-7.7 13.2,-9.9zm9.1,-2.4c4.2,4.1 19.1,17.6 35.5,20.6c0.9,2.1 1.5,4.2 2,6.4c-23.6,-2.1 -40,-19.6 -44.7,-25.3c2.2,-0.8 4.7,-1.4 7.2,-1.7zm34.5,18.5c-13.9,-3 -26.8,-13.9 -32,-18.7c0.5,0 1.1,-0.1 1.6,-0.1c13.3,0 24.8,7.7 30.4,18.8zm-71.6,-3.3c-0.8,-1.3 -2.1,-4.6 -1.3,-6c0.3,-0.6 1.2,-1 2.7,-1c0.1,0 4.6,-0.4 10.8,1.4c-3.1,3.7 -5.5,7.9 -7,12.6c-2,-2.3 -3.8,-4.6 -5.2,-7zm7.7,24.9c5.6,8.7 18.4,24.1 40.3,27.1c-2.2,0.4 -4.5,0.7 -6.8,0.7c-16.7,0 -30.5,-12 -33.5,-27.8zm45.1,25.7c-27.7,-1.4 -41.8,-23.2 -45.7,-30.2c0,-0.6 -0.1,-1.2 -0.1,-1.8c0,-1.4 0.1,-2.8 0.3,-4.1c9.7,9.1 20.9,16 21.5,16.4c13,8.6 23.5,13.4 31.1,16.2c-2.2,1.4 -4.5,2.6 -7.1,3.5zm27.3,-4.9c-0.5,0.6 -2.1,1.5 -6.2,1.2c-0.1,0 -2.3,-0.2 -6.2,-1.3c3.2,-3.1 5.8,-6.8 7.7,-10.9c2.2,2.5 5,6.4 5.3,9.5c-0.1,0 0,0.8 -0.6,1.5z"/>
  </g>
 </switch>

 <g>
  <title>Layer 1</title>
 </g>
</svg>

<?xml version="1.0" encoding="UTF-8" standalone="no"?>
<svg
   width="90"
   height="90"
   xml:space="preserve"
   enable-background="new 0 0 100 100"
   version="1.1"
   id="svg10"
   sodipodi:docname="saturn.svg"
   inkscape:version="1.1 (c68e22c387, 2021-05-23)"
   xmlns:inkscape="http://www.inkscape.org/namespaces/inkscape"
   xmlns:sodipodi="http://sodipodi.sourceforge.net/DTD/sodipodi-0.dtd"
   xmlns="http://www.w3.org/2000/svg"
   xmlns:svg="http://www.w3.org/2000/svg"><defs
   id="defs14" /><sodipodi:namedview
   id="namedview12"
   pagecolor="#505050"
   bordercolor="#eeeeee"
   borderopacity="1"
   inkscape:pageshadow="0"
   inkscape:pageopacity="0"
   inkscape:pagecheckerboard="0"
   showgrid="false"
   width="110px"
   units="in"
   inkscape:zoom="7.82"
   inkscape:cx="43.734015"
   inkscape:cy="50"
   inkscape:window-width="1920"
   inkscape:window-height="986"
   inkscape:window-x="-11"
   inkscape:window-y="1609"
   inkscape:window-maximized="1"
   inkscape:current-layer="svg10" />
 <switch
   id="switch4"
   transform="translate(-4.8468181,-4.85)">
  <foreignObject
   id="svg_1"
   height="1"
   width="1"
   y="0"
   x="0"
   requiredExtensions="http://ns.adobe.com/AdobeIllustrator/10.0/" />
  <g
   id="svg_2">
   <path
   id="svg_3"
   d="M 94.6,75 C 94.2,69.9 89.2,64.3 87.2,62.1 88.5,58.3 89.3,54.2 89.3,49.9 89.3,29 72.3,12 51.5,12 41.3,12 32.1,16 25.3,22.6 17.5,19.9 11.6,20.4 11.4,20.4 c -3.4,0.2 -5,1.7 -5.7,3 -2,3.7 1,9.1 1.3,9.7 1.9,3.2 4.5,6.4 7.3,9.4 -0.5,2.4 -0.7,4.8 -0.7,7.4 0,20.9 17,37.8 37.8,37.8 8.7,0 16.7,-3 23.1,-8 5.8,1.8 9.1,2 9.3,2.1 0.7,0.1 1.4,0.1 2,0.1 3.3,0 5.8,-0.8 7.2,-2.5 2,-2 1.7,-4.4 1.6,-4.4 z M 73.8,75.5 C 66.4,73.1 55.2,68.3 41.1,58.9 40.9,58.8 28.2,51 18.4,41.3 c 1.1,-4.2 2.9,-8.1 5.4,-11.5 4.9,7.5 23.8,32.4 59.2,32.7 -2,5.1 -5.2,9.5 -9.2,13 z M 38.3,18.4 c 4.3,5.3 21.7,24.5 46.9,26.5 0.2,1.6 0.4,3.2 0.4,4.9 0,3.8 -0.7,7.5 -1.8,10.9 -36,-0.1 -54.7,-26.1 -58.7,-32.4 3.5,-4.3 8,-7.7 13.2,-9.9 z M 47.4,16 c 4.2,4.1 19.1,17.6 35.5,20.6 0.9,2.1 1.5,4.2 2,6.4 C 61.3,40.9 44.9,23.4 40.2,17.7 42.4,16.9 44.9,16.3 47.4,16 Z M 81.9,34.5 C 68,31.5 55.1,20.6 49.9,15.8 c 0.5,0 1.1,-0.1 1.6,-0.1 13.3,0 24.8,7.7 30.4,18.8 z M 10.3,31.2 C 9.5,29.9 8.2,26.6 9,25.2 c 0.3,-0.6 1.2,-1 2.7,-1 0.1,0 4.6,-0.4 10.8,1.4 -3.1,3.7 -5.5,7.9 -7,12.6 -2,-2.3 -3.8,-4.6 -5.2,-7 z M 18,56.1 c 5.6,8.7 18.4,24.1 40.3,27.1 -2.2,0.4 -4.5,0.7 -6.8,0.7 C 34.8,83.9 21,71.9 18,56.1 Z M 63.1,81.8 C 35.4,80.4 21.3,58.6 17.4,51.6 c 0,-0.6 -0.1,-1.2 -0.1,-1.8 0,-1.4 0.1,-2.8 0.3,-4.1 9.7,9.1 20.9,16 21.5,16.4 13,8.6 23.5,13.4 31.1,16.2 -2.2,1.4 -4.5,2.6 -7.1,3.5 z m 27.3,-4.9 c -0.5,0.6 -2.1,1.5 -6.2,1.2 -0.1,0 -2.3,-0.2 -6.2,-1.3 3.2,-3.1 5.8,-6.8 7.7,-10.9 2.2,2.5 5,6.4 5.3,9.5 -0.1,0 0,0.8 -0.6,1.5 z" />
  </g>
 </switch>

 <g
   id="g8">
  <title
   id="title6">Layer 1</title>
 </g>
</svg>
